brandFactory_export/1.Light/Cita_1Light.svg

<?xml version="1.0" encoding="UTF-8"?>
<svg width="24px" height="24px" viewBox="0 0 24 24" version="1.1" xmlns="http://www.w3.org/2000/svg" xmlns:xlink="http://www.w3.org/1999/xlink">
    <title>1.Light/Cita_1Light</title>
    <g id="Symbols" stroke="none" stroke-width="1" fill="none" fill-rule="evenodd">
        <g id="1.Light/Cita_1Light" fill="#5CB615" fill-rule="nonzero">
            <path d="M15.4487395,17.1663866 C15.4957983,17.1630252 15.5394958,17.1428571 15.5663866,17.1058824 L15.5596639,15.4016807 C15.5294118,15.3714286 15.4890756,15.3546218 15.4487395,15.3512605 L13.2403361,15.3512605 C12.9680672,15.3512605 12.7495798,15.1294118 12.7495798,14.8605042 L12.7495798,12.6554622 C12.7495798,12.6084034 12.7260504,12.5647059 12.6890756,12.5378151 L10.9647059,12.5445378 C10.9781513,12.5478992 10.9411765,12.5983193 10.9411765,12.6554622 L10.9411765,14.8638655 C10.9411765,15.1361345 10.7193277,15.3546218 10.4504202,15.3546218 L8.24201681,15.3546218 C8.18151261,15.3546218 8.13781513,15.3915966 8.12773109,15.4084034 L8.13109244,17.1428571 C8.13109244,17.1394958 8.13445378,17.1394958 8.13445378,17.1394958 C8.14789916,17.1394958 8.18823529,17.1630252 8.23865546,17.1630252 L10.4470588,17.1630252 C10.7193277,17.1630252 10.9378151,17.3848739 10.9378151,17.6537815 L10.9378151,19.8655462 C10.9378151,19.9260504 10.9747899,19.9697479 10.9882353,19.9764706 L12.7260504,19.9731092 C12.712605,19.9697479 12.7495798,19.9260504 12.7495798,19.8655462 L12.7462185,17.6571429 C12.7462185,17.5260504 12.8,17.4016807 12.8907563,17.307563 C12.9848739,17.2168067 13.1092437,17.1630252 13.2403361,17.1630252 L15.4487395,17.1663866 L15.4487395,17.1663866 Z M15.4487395,14.3663866 C16.0336134,14.3663866 16.5445378,14.8403361 16.5445378,15.3747899 L16.5445378,17.1428571 C16.5445378,17.6806723 16.0336134,18.1512605 15.4487395,18.1512605 L13.7344538,18.1512605 L13.7378151,19.8655462 C13.7378151,20.4605042 13.2773109,20.9579832 12.7294118,20.9579832 L10.9647059,20.9579832 C10.4201681,20.9579832 9.95630252,20.4571429 9.95630252,19.8655462 L9.95630252,18.1512605 L8.23865546,18.1512605 C7.64705882,18.1512605 7.14621849,17.687395 7.14621849,17.1428571 L7.14621849,15.3815126 C7.14621849,14.8336134 7.64705882,14.3731092 8.23865546,14.3731092 L9.95630252,14.3731092 L9.95630252,12.6554622 C9.95630252,12.0605042 10.4168067,11.5596639 10.9647059,11.5596639 L12.7260504,11.5596639 C13.2739496,11.5596639 13.7344538,12.0605042 13.7344538,12.6554622 L13.7344538,14.3663866 L15.4487395,14.3663866 Z M19.6638655,22.6386555 C21.0352941,22.6386555 22.6689076,22.0470588 22.6689076,19.2336134 L22.6689076,9.88571429 L1.01848739,9.88571429 L1.01848739,19.3243697 C1.01848739,19.3310924 0.94789916,20.7865546 1.84201681,21.7310924 C2.39663866,22.3193277 3.25378151,22.6184874 4.38319328,22.6184874 L19.2907563,22.6184874 C19.3310924,22.6184874 19.3714286,22.6218487 19.4117647,22.6252101 C19.4252101,22.6285714 19.5193277,22.6386555 19.6638655,22.6386555 L19.6638655,22.6386555 Z M2.26890756,3.82184874 C1.43865546,4.34957983 1.01848739,5.31092437 1.01848739,6.68235294 L1.01848739,8.90084034 L22.6655462,8.90084034 L22.6655462,6.70252101 C22.6655462,6.67563025 22.6655462,6.6487395 22.6689076,6.62521008 C22.6689076,6.61512605 22.7563025,5.17310924 21.8722689,4.22857143 C21.3142857,3.6302521 20.4436975,3.32773109 19.2840336,3.32773109 L17.6571429,3.32773109 L17.6571429,4.03697479 C17.6571429,4.3092437 17.4352941,4.52773109 17.1663866,4.52773109 C16.897479,4.52773109 16.6756303,4.30588235 16.6756303,4.03697479 L16.6756303,3.32773109 C13.5327731,3.32773109 9.58991597,3.33109244 7.02521008,3.33109244 L7.02521008,4.03697479 C7.02521008,4.3092437 6.80336134,4.52773109 6.53445378,4.52773109 C6.26554622,4.52773109 6.04369748,4.30588235 6.04369748,4.03697479 L6.04369748,3.33445378 L4.36638655,3.33445378 C4.33613445,3.33445378 4.30588235,3.33445378 4.2789916,3.33109244 C4.26890756,3.33109244 4.21512605,3.32773109 4.12773109,3.32773109 C3.80504202,3.32773109 2.97478992,3.37478992 2.26890756,3.82184874 Z M19.2840336,2.34285714 C23.9966387,2.34285714 23.6504202,6.70588235 23.6504202,6.70588235 L23.6537815,19.2369748 C23.6537815,23.2638655 20.7226891,23.6268908 19.6638655,23.6268908 C19.4319328,23.6268908 19.287395,23.610084 19.287395,23.610084 L4.37983193,23.610084 C-0.255462185,23.6067227 0.0369747899,19.2605042 0.0369747899,19.2605042 L0.0369747899,6.68235294 C0.0369747899,2.62857143 3.22352941,2.34285714 4.12773109,2.34285714 C4.2789916,2.34285714 4.36638655,2.34957983 4.36638655,2.34957983 L6.04033613,2.34957983 L6.04033613,0.490756303 C6.04033613,0.218487395 6.26218487,0 6.53109244,0 C6.8,0 7.02521008,0.218487395 7.02521008,0.490756303 L7.02521008,2.34621849 L16.6756303,2.34285714 L16.6756303,0.490756303 C16.6756303,0.218487395 16.897479,0 17.1663866,0 C17.4352941,0 17.6571429,0.221848739 17.6571429,0.490756303 L17.6571429,2.34285714 L19.2840336,2.34285714 Z" id="Cita_1Light"></path>
        </g>
    </g>
</svg>

<svg width="24" height="24" viewBox="0 0 24 24" xmlns="http://www.w3.org/2000/svg"><path d="M15.449 17.166a.156.156 0 00.117-.06l-.006-1.704a.178.178 0 00-.111-.05H13.24a.491.491 0 01-.49-.491v-2.206a.146.146 0 00-.06-.117l-1.725.007c.013.003-.024.053-.024.11v2.209c0 .272-.222.49-.49.49H8.241a.145.145 0 00-.114.054l.003 1.735c0-.004.003-.004.003-.004.014 0 .054.024.105.024h2.208c.272 0 .49.222.49.49v2.213c0 .06.038.104.051.11l1.738-.003c-.013-.003.024-.047.024-.107l-.004-2.209c0-.13.054-.255.145-.35a.505.505 0 01.35-.144l2.208.003zm0-2.8c.585 0 1.096.474 1.096 1.009v1.768c0 .538-.511 1.008-1.096 1.008h-1.715l.004 1.715c0 .595-.46 1.092-1.009 1.092h-1.764c-.545 0-1.009-.5-1.009-1.092V18.15H8.24c-.592 0-1.093-.464-1.093-1.008v-1.761c0-.548.501-1.009 1.093-1.009h1.717v-1.718c0-.594.46-1.095 1.009-1.095h1.761c.548 0 1.008.5 1.008 1.095v1.711h1.715zm4.215 8.273c1.371 0 3.005-.592 3.005-3.405V9.886H1.019v9.438c0 .007-.071 1.463.823 2.407.555.588 1.412.887 2.541.887h14.908c.04 0 .08.004.12.007.014.004.108.014.253.014zM2.269 3.822c-.83.528-1.25 1.489-1.25 2.86v2.219h21.647V6.703c0-.027 0-.054.003-.078 0-.01.087-1.452-.797-2.396-.558-.599-1.428-.901-2.588-.901h-1.627v.709a.491.491 0 01-.981 0v-.71c-3.143 0-7.086.004-9.65.004v.706a.491.491 0 01-.982 0v-.703H4.366c-.03 0-.06 0-.087-.003-.01 0-.064-.003-.151-.003-.323 0-1.153.047-1.86.494zm17.015-1.48c4.713 0 4.366 4.364 4.366 4.364l.004 12.531c0 4.027-2.931 4.39-3.99 4.39-.232 0-.377-.017-.377-.017H4.38C-.255 23.607.037 19.26.037 19.26V6.683c0-4.053 3.187-4.34 4.09-4.34.152 0 .24.008.24.008H6.04V.49a.491.491 0 01.985 0v1.856l9.65-.003V.49a.491.491 0 01.982 0v1.852h1.627z" fill="#5CB615" fill-rule="nonzero"/></svg>
